X:1
T:Title
%%score { 1 | 2 }
L:1/8
M:4/2
K:G
V:1 treble nm="Grand Piano"
V:2 bass 
V:1
 z8 z4[Q:1/4=184] B4 | B6 A2 G4 [DG]4 | [EG]6 [CE]2 [B,D]4 B4 | d6 [EGc]2 [GB]4 [FA]4 | %4
[M:6/4] [DGB]12 |[M:2/4] B4 |[M:8/4] B6 A2 G4 [DG]4 | [EG]6 [CE]2 [B,D]4 [DB]4 | %8
 [Dd]6 [Ec]2 [DB]4 [CA]4 |[M:6/4] [B,G]12 |[M:2/4] [DA]4 |[M:8/4] [DA]6 [GB]2 [FA]4 G4 | %12
 B6 c2 B4 G4 | [EG]6 [Ge]2 [Gd]4 [GB]4 |[M:6/4] [FA]12 |[M:2/4] [Fd]4 |[M:8/4] d6 B2 B4 G4 | %17
 [EG]6 [CE]2 [EG]4 [Ge]4 | [Gd]6 [DB]2 [CA]6 [B,G]2 |[M:6/4] [B,G]12 |] %20
V:2
 z8 z4 [G,D]4 | [G,D]6 [D,F,C]2 [E,G,B,]4 [B,,G,]4 | [C,C]6 [C,G,]2 [G,,G,]4[K:treble] [G,D]4 | %3
 [G,B,G]6[K:bass] C,2 [D,D]4 [D,D]4 |[M:6/4] [G,,G,]12 |[M:2/4] [G,D]4 | %6
[M:8/4] [G,D]6 [D,F,C]2 [E,G,B,]4 [B,,G,]4 | [C,C]6 [C,G,]2 [G,,G,]4 [G,,G,]4 | %8
 [B,,G,]6 [C,G,]2 [D,G,]4 [D,F,]4 |[M:6/4] [G,,G,]12 |[M:2/4] [D,F,]4 | %11
[M:8/4] [D,F,]6 [D,D]2 [D,C]4[K:treble] [G,B,D]4 | [G,D]6 [G,EG]2 [G,DG]4 [G,B,D]4 | %13
 [C,C]6 [C,C]2 [G,B,]4 [G,D]4 |[M:6/4] [D,D]12 |[M:2/4] [D,A,]4 | %16
[M:8/4][K:treble] [G,B,G]6 [G,DG]2 [G,DG]4[K:bass] [G,B,D]4 | [C,C]6 [C,G,]2 [C,G,]4 [C,C]4 | %18
 [D,B,]6 [D,G,]2 [D,F,]6 [G,,G,]2 |[M:6/4] [G,,G,]12 |] %20

